build/service/ThumbsUpSolid.svg

<svg xmlns="http://www.w3.org/2000/svg" fill="none" viewBox="0 0 24 24" focusable="false"><path d="M0 0H24V24H0z"/><path fill="#74767B" fill-rule="evenodd" d="M5.30075 9.62349C4.58237 9.62349 4 10.2101 4 10.9337L4 18.6898C4 19.4134 4.58237 20 5.30075 20L7.08925 20C7.80763 20 8.39 19.4134 8.39 18.6898L8.39 10.9337C8.39 10.2101 7.80763 9.6235 7.08925 9.6235L5.30075 9.62349ZM9.70839 10.327C9.70839 10.1118 9.761 9.89996 9.86157 9.71013L11.2591 7.0722C11.4716 6.67106 11.5828 6.22338 11.5828 5.76869L11.5828 5.43167C11.5828 4.0887 12.6636 3 13.9969 3C15.3301 3 16.4109 4.0887 16.4109 5.43167L16.4109 6.08453C16.4109 6.33468 16.3796 6.58384 16.3177 6.82623L15.8477 8.66756L17.9968 8.66756C19.95 8.66756 21.383 10.5169 20.9087 12.4254L19.5951 17.7106C19.2607 19.0562 18.0603 20 16.6833 20L11.0091 20C10.2908 20 9.70839 19.4134 9.70839 18.6897L9.70839 10.327Z"/></svg>

<svg xmlns="http://www.w3.org/2000/svg" fill="none" viewBox="0 0 24 24" focusable="false"><path fill="#74767B" fill-rule="evenodd" d="M5.3 9.62c-.72 0-1.3.59-1.3 1.31v7.75c0 .73.58 1.32 1.3 1.32h1.78c.72 0 1.31-.59 1.31-1.32v-7.75c0-.72-.59-1.31-1.31-1.31zm4.4.7c0-.21.06-.43.16-.61l1.39-2.64c.22-.4.33-.85.33-1.31v-.33a2.416 2.416 0 1 1 4.83 0v.65c0 .25-.04.5-.1.74l-.47 1.84h2.15c1.96 0 3.39 1.85 2.91 3.76l-1.31 5.29A3.004 3.004 0 0 1 16.68 20H11c-.71 0-1.3-.59-1.3-1.32z"/></svg>
